X: 4952
T: Breeches Mary
R: jig
M: 6/8
K: Gmajor
eAA BAB|GBd dBd|egg dgg|BAB GBd|
eAA BAB|GBd dBd|e/f/ge dBA|BGG G2:|
eaa bag|egg ged|egg dgg|BAB GBd|
eaa bag|egg ged|e/f/ge dBA|BGG G2:|

